src/img/svg/twitter.svg

<svg width="25" height="25" viewBox="0 0 25 25" fill="none" xmlns="http://www.w3.org/2000/svg">
<path d="M12.5 0C19.4039 0 25 5.59687 25 12.5C25 19.404 19.4039 25 12.5 25C5.59601 25 0 19.4039 0 12.5C0 5.59687 5.5961 0 12.5 0Z" fill="white"/>
<path d="M20.3144 8.42111C19.7684 8.65702 19.1808 8.81561 18.5645 8.88753C19.1942 8.52109 19.677 7.94217 19.9043 7.25083C19.3153 7.59067 18.6637 7.83679 17.9692 7.96878C17.4137 7.39458 16.6223 7.03595 15.7457 7.03595C14.0645 7.03595 12.7004 8.35864 12.7004 9.99139C12.7004 10.2234 12.7271 10.4492 12.7793 10.6656C10.2481 10.5422 8.00276 9.36484 6.50123 7.57659C6.23872 8.01331 6.08871 8.52032 6.08871 9.06251C6.08871 10.0875 6.62618 10.9937 7.44341 11.5227C6.94344 11.5071 6.47463 11.375 6.06296 11.1524V11.1899C6.06296 12.6227 7.11293 13.8173 8.50668 14.0891C8.2512 14.1563 7.98242 14.1931 7.70429 14.1931C7.5082 14.1931 7.3176 14.1751 7.13164 14.1399C7.5191 15.3149 8.64416 16.1696 9.97775 16.1931C8.93482 16.9868 7.62148 17.4587 6.19418 17.4587C5.94806 17.4587 5.70588 17.4446 5.4668 17.4174C6.81601 18.2564 8.41606 18.7462 10.1371 18.7462C15.7402 18.7462 18.8043 14.24 18.8043 10.3337L18.7957 9.95088C19.3894 9.53519 19.9059 9.01488 20.3144 8.42111Z" fill="#00ADEE"/>
</svg>

<svg width="25" height="25" fill="none" xmlns="http://www.w3.org/2000/svg"><path d="M12.5 0C19.404 0 25 5.597 25 12.5 25 19.404 19.404 25 12.5 25S0 19.404 0 12.5C0 5.597 5.596 0 12.5 0z" fill="#fff"/><path d="M20.314 8.421a6.224 6.224 0 0 1-1.75.467 2.98 2.98 0 0 0 1.34-1.637c-.589.34-1.24.586-1.935.718a3.086 3.086 0 0 0-2.223-.933c-1.681 0-3.046 1.323-3.046 2.955 0 .232.027.458.08.675a8.738 8.738 0 0 1-6.28-3.09 2.872 2.872 0 0 0-.412 1.487c0 1.024.537 1.93 1.354 2.46a3.097 3.097 0 0 1-1.38-.37v.037c0 1.433 1.05 2.627 2.444 2.9a3.15 3.15 0 0 1-1.375.05c.387 1.175 1.512 2.03 2.846 2.053a6.228 6.228 0 0 1-3.784 1.266c-.246 0-.488-.014-.727-.042a8.816 8.816 0 0 0 4.67 1.33c5.603 0 8.667-4.507 8.667-8.413l-.008-.383a6.077 6.077 0 0 0 1.518-1.53z" fill="#00ADEE"/></svg>
